src/assets/outline/MonitorMobbile.svg

<svg width="24" height="24" viewBox="0 0 24 24"  xmlns="http://www.w3.org/2000/svg">
<path d="M10 17.7003H6.21C2.41 17.7003 1.25 16.5403 1.25 12.7403V6.74027C1.25 2.94027 2.41 1.78027 6.21 1.78027H16.74C20.54 1.78027 21.7 2.94027 21.7 6.74027C21.7 7.15027 21.36 7.49027 20.95 7.49027C20.54 7.49027 20.2 7.15027 20.2 6.74027C20.2 3.80027 19.68 3.28027 16.74 3.28027H6.21C3.27 3.28027 2.75 3.80027 2.75 6.74027V12.7403C2.75 15.6803 3.27 16.2003 6.21 16.2003H10C10.41 16.2003 10.75 16.5403 10.75 16.9503C10.75 17.3603 10.41 17.7003 10 17.7003Z" />
<path d="M10 22.2204C9.59 22.2204 9.25 21.8804 9.25 21.4704V16.9404C9.25 16.5304 9.59 16.1904 10 16.1904C10.41 16.1904 10.75 16.5304 10.75 16.9404V21.4704C10.75 21.8904 10.41 22.2204 10 22.2204Z" />
<path d="M10 13.7002H2C1.59 13.7002 1.25 13.3602 1.25 12.9502C1.25 12.5402 1.59 12.2002 2 12.2002H10C10.41 12.2002 10.75 12.5402 10.75 12.9502C10.75 13.3602 10.41 13.7002 10 13.7002Z" />
<path d="M10.0002 22.2197H6.74023C6.33023 22.2197 5.99023 21.8797 5.99023 21.4697C5.99023 21.0597 6.33023 20.7197 6.74023 20.7197H10.0002C10.4102 20.7197 10.7502 21.0597 10.7502 21.4697C10.7502 21.8797 10.4102 22.2197 10.0002 22.2197Z" />
<path d="M19.0398 22.2198H15.4898C12.7198 22.2198 11.7798 21.2798 11.7798 18.5098V12.7998C11.7798 10.0298 12.7198 9.08984 15.4898 9.08984H19.0398C21.8098 9.08984 22.7498 10.0298 22.7498 12.7998V18.5098C22.7498 21.2898 21.8098 22.2198 19.0398 22.2198ZM15.4898 10.5898C13.5298 10.5898 13.2798 10.8398 13.2798 12.7998V18.5098C13.2798 20.4698 13.5298 20.7198 15.4898 20.7198H19.0398C20.9998 20.7198 21.2498 20.4698 21.2498 18.5098V12.7998C21.2498 10.8398 20.9998 10.5898 19.0398 10.5898H15.4898Z" />
<path d="M17.2998 18.9698C17.0398 18.9698 16.7798 18.8698 16.5898 18.6798C16.4998 18.5898 16.4298 18.4798 16.3798 18.3598C16.3298 18.2298 16.2998 18.0998 16.2998 17.9698C16.2998 17.7098 16.4098 17.4498 16.5898 17.2698C16.8198 17.0398 17.1698 16.9298 17.4998 16.9898C17.5598 17.0098 17.6198 17.0298 17.6798 17.0498C17.7398 17.0798 17.7998 17.1098 17.8498 17.1398C17.9098 17.1798 17.9598 17.2198 18.0098 17.2698C18.1898 17.4498 18.2998 17.7098 18.2998 17.9698C18.2998 18.0998 18.2698 18.2298 18.2198 18.3598C18.1698 18.4798 18.0998 18.5898 18.0098 18.6798C17.9598 18.7298 17.9098 18.7698 17.8498 18.7998C17.7998 18.8398 17.7398 18.8698 17.6798 18.8998C17.6198 18.9198 17.5598 18.9398 17.4998 18.9498C17.4298 18.9698 17.3698 18.9698 17.2998 18.9698Z" />
</svg>

<?xml version="1.0" encoding="UTF-8"?>
<svg width="24" height="24" viewBox="0 0 24 24" xmlns="http://www.w3.org/2000/svg">
 <path d="m10 17.7h-3.79c-3.8 0-4.96-1.16-4.96-4.96v-6c0-3.8 1.16-4.96 4.96-4.96h10.53c3.8 0 4.96 1.16 4.96 4.96 0 0.41-0.34 0.75-0.75 0.75s-0.75-0.34-0.75-0.75c0-2.94-0.52-3.46-3.46-3.46h-10.53c-2.94 0-3.46 0.52-3.46 3.46v6c0 2.94 0.52 3.46 3.46 3.46h3.79c0.41 0 0.75 0.34 0.75 0.75s-0.34 0.75-0.75 0.75z"/>
 <path d="m10 22.22c-0.41 0-0.75-0.34-0.75-0.75v-4.53c0-0.41 0.34-0.75 0.75-0.75s0.75 0.34 0.75 0.75v4.53c0 0.42-0.34 0.75-0.75 0.75z"/>
 <path d="m10 13.7h-8c-0.41 0-0.75-0.34-0.75-0.75s0.34-0.75 0.75-0.75h8c0.41 0 0.75 0.34 0.75 0.75s-0.34 0.75-0.75 0.75z"/>
 <path d="m10 22.22h-3.26c-0.41 0-0.75-0.34-0.75-0.75s0.34-0.75 0.75-0.75h3.26c0.41 0 0.75 0.34 0.75 0.75s-0.34 0.75-0.75 0.75z"/>
 <path d="m19.04 22.22h-3.55c-2.77 0-3.71-0.94-3.71-3.71v-5.71c0-2.77 0.94-3.71 3.71-3.71h3.55c2.77 0 3.71 0.93996 3.71 3.71v5.71c0 2.78-0.94 3.71-3.71 3.71zm-3.55-11.63c-1.96 0-2.21 0.25-2.21 2.21v5.71c0 1.96 0.25 2.21 2.21 2.21h3.55c1.96 0 2.21-0.25 2.21-2.21v-5.71c0-1.96-0.25-2.21-2.21-2.21h-3.55z"/>
 <path d="m17.3 18.97c-0.26 0-0.52-0.1-0.71-0.29-0.09-0.09-0.16-0.2-0.21-0.32-0.05-0.13-0.08-0.26-0.08-0.39 0-0.26 0.11-0.52 0.29-0.7 0.23-0.23 0.58-0.34 0.91-0.28l0.18 0.06c0.06 0.03 0.12 0.06 0.17 0.09 0.06 0.04 0.11 0.08 0.16 0.13 0.18 0.18 0.29 0.44 0.29 0.7 0 0.13-0.03 0.26-0.08 0.39-0.05 0.12-0.12 0.23-0.21 0.32-0.05 0.05-0.1 0.09-0.16 0.12-0.05 0.04-0.11 0.07-0.17 0.1-0.06 0.02-0.12 0.04-0.18 0.05-0.07 0.02-0.13 0.02-0.2 0.02z"/>
</svg>
